X: 822
T: Gerçi Pek Esmer Olur
C: Ahmet Avni Konuk
O: Turkey
F: http://compmusic.upf.edu/node/140
N: hicaz--kupe--duyek--gerci--ahmet_avni_konuk
N: makam= hicaz
N: form= kupe
N: usul= duyek = 8/4
M: 8/4
L: 1/16
K: C _7/8B ^f ^c 
Q: 1/4=57
%%MIDI tuningsystem comma53
z4 d8 d4 ^3/4c2d2 e2d2 d6z2  | z4 e2g2 =f4 e2f2 e2d4f2 e2d2 c2B2  | 
w:  Ger çi  pek  *  *  *  es  |  mer  *  *  o *  lur  *  *  ruh  | 
A4 A8 B2A2 G6z2 A4 B4  | ^3/4c4 d2g2 =f4 e2f2 e2d2 {e}d2c2 d6z2  | \
w:  *  sâr_ ı  *  mah bûb_  |  *  ı  *  *  Hi *  caz    | 
z4 ^3/4f8 f4 e2f2 g2a2 a2g2 f2e2  | 
w:  Nağ me sin  *  *  *  gûş   | 
d4 {a}g4 =f4 e2f2 e2d4f2 e2d2 ^3/4c2B2  | \
w:  *  *  ey *  le *  yin *  *  ce   | 
A4 A2G2 A4 B4 ^3/4c8 d2c2 B2A2  | 
w:  *  yan *  *  ma yan  gâ  | 
e4 d2^3/4c2 c2B2 B2A2 G2A2 B2{c}BA A6z2  | |


